build/img/main/p5.svg

<svg width="81" height="51" viewBox="0 0 81 51" fill="none" xmlns="http://www.w3.org/2000/svg">
<g clip-path="url(#clip0)">
<path fill-rule="evenodd" clip-rule="evenodd" d="M40.5 0C18.1323 0 0 11.4164 0 25.5009C0 39.5855 18.1323 51.0019 40.5 51.0019C62.8677 51.0019 81 39.5855 81 25.5009C81 11.4164 62.8677 0 40.5 0ZM10.4911 15.4075C11.6051 20.0148 19.7126 23.8394 30.6849 25.2955C30.683 25.512 30.6811 25.7285 30.6811 25.9468C30.6811 36.8729 33.8623 46.0393 38.152 48.5317C20.3549 47.6898 6.3156 37.9886 6.3156 26.143C6.3156 22.2555 7.8285 18.5974 10.4911 15.4075ZM34.7105 25.7119C36.5848 25.8525 38.519 25.9265 40.5 25.9265C42.481 25.9265 44.4152 25.8525 46.2895 25.7119C46.0236 33.8162 43.5333 40.1683 40.5 40.1683C37.4667 40.1683 34.9764 33.8144 34.7105 25.7119ZM50.3151 25.2955C61.5364 23.8079 69.76 19.8408 70.5726 15.0948C73.4018 18.3569 75.0158 22.1278 75.0158 26.1448C75.0158 38.0701 60.7874 47.823 42.8199 48.5483C47.1227 46.08 50.3189 36.897 50.3189 25.9468C50.3189 25.7285 50.3189 25.512 50.3151 25.2955ZM44.0089 4.2224C55.2264 4.78674 63.8245 8.01368 63.8245 11.9104C63.8245 15.093 58.0893 17.8277 49.877 19.0304C48.9838 12.2213 46.8025 6.75362 44.0089 4.2224ZM46.0423 19.4634C44.2654 19.6077 42.4098 19.6836 40.5 19.6836C38.5902 19.6836 36.7346 19.6077 34.9577 19.4634C35.7029 13.0373 37.903 8.38189 40.5 8.38189C43.097 8.38189 45.2971 13.0373 46.0423 19.4634ZM31.123 19.0304C22.9107 17.8277 17.1755 15.0911 17.1755 11.9104C17.1755 10.5949 18.1548 9.357 19.883 8.27087C21.9108 7.26245 24.1146 6.39836 26.4608 5.70079C29.4828 4.94032 33.0778 4.41853 36.9911 4.2224C34.1975 6.75362 32.018 12.2213 31.123 19.0304Z" fill="white"/>
</g>
<defs>
<clipPath id="clip0">
<rect width="81" height="51" fill="white"/>
</clipPath>
</defs>
</svg>

<svg width="81" height="51" fill="none" xmlns="http://www.w3.org/2000/svg"><g clip-path="url(#clip0)"><path fill-rule="evenodd" clip-rule="evenodd" d="M40.5 0C18.132 0 0 11.416 0 25.5c0 14.086 18.132 25.502 40.5 25.502S81 39.586 81 25.5 62.868 0 40.5 0zM10.491 15.408c1.114 4.607 9.222 8.431 20.194 9.888-.002.216-.004.433-.004.65 0 10.927 3.181 20.093 7.471 22.586C20.355 47.69 6.316 37.989 6.316 26.143c0-3.887 1.513-7.546 4.175-10.736zm24.22 10.304a77.763 77.763 0 0011.579 0c-.266 8.104-2.757 14.456-5.79 14.456s-5.524-6.354-5.79-14.456zm15.604-.416c11.221-1.488 19.445-5.455 20.258-10.201 2.829 3.262 4.443 7.033 4.443 11.05 0 11.925-14.229 21.678-32.196 22.403 4.303-2.468 7.499-11.651 7.499-22.601 0-.218 0-.435-.004-.651zM44.01 4.221c11.217.565 19.816 3.792 19.816 7.688 0 3.183-5.736 5.918-13.948 7.12-.893-6.809-3.075-12.276-5.868-14.808zm2.033 15.241c-1.777.145-3.632.22-5.542.22-1.91 0-3.765-.075-5.542-.22.745-6.426 2.945-11.081 5.542-11.081s4.797 4.655 5.542 11.081zm-14.919-.433c-8.212-1.202-13.948-3.939-13.948-7.12 0-1.315.98-2.553 2.708-3.64a41.067 41.067 0 016.578-2.57c3.022-.76 6.617-1.281 10.53-1.478-2.794 2.532-4.973 8-5.868 14.808z" fill="#fff"/></g><defs><clipPath id="clip0"><path fill="#fff" d="M0 0h81v51H0z"/></clipPath></defs></svg>
